packages/foundations/assets/icons/functional/images/environment/moon_14.svg

<svg width="14" height="14" viewBox="0 0 14 14" fill="none" xmlns="http://www.w3.org/2000/svg">
<g clip-path="url(#clip0_185_834)">
<path fill-rule="evenodd" clip-rule="evenodd" d="M7.5281 2.4151L7.77676 1.8889C7.85935 1.71413 7.78463 1.5055 7.60986 1.42291C7.55813 1.39847 7.5012 1.38708 7.44406 1.38974L6.86268 1.41678C3.88222 1.55542 1.52673 4.01631 1.52673 7.01065C1.52673 10.1034 4.03394 12.6107 7.12673 12.6107C9.31301 12.6107 11.271 11.3461 12.1902 9.40476L12.4395 8.87838C12.5222 8.70367 12.4476 8.49499 12.2729 8.41226C12.2211 8.38775 12.1641 8.37632 12.1069 8.37897L11.5251 8.40595C11.4592 8.40901 11.3931 8.41054 11.3267 8.41054C9.00714 8.41054 7.12673 6.53014 7.12673 4.21054C7.12673 3.58085 7.26494 2.97198 7.5281 2.4151ZM5.85693 3.00514L5.81416 3.22003C5.75626 3.5443 5.72673 3.87544 5.72673 4.21054L5.7294 4.38497C5.80907 6.98895 7.66644 9.14555 10.1289 9.68214L10.3327 9.72234L10.2711 9.79597C9.49026 10.6772 8.35682 11.2106 7.12673 11.2106C4.80714 11.2106 2.92673 9.33025 2.92673 7.01065C2.92673 5.13932 4.15368 3.54558 5.85693 3.00514Z" fill="#1A1C1F"/>
</g>
<defs>
<clipPath id="clip0_185_834">
<rect width="14" height="14" fill="white"/>
</clipPath>
</defs>
</svg>

<svg xmlns="http://www.w3.org/2000/svg" width="14" height="14" fill="none"><g clip-path="url(#a)"><path fill="#1A1C1F" fill-rule="evenodd" d="m7.528 2.415.249-.526a.35.35 0 0 0-.333-.5l-.581.028a5.6 5.6 0 1 0 5.327 7.988l.25-.527a.35.35 0 0 0-.333-.499l-.582.027a4.2 4.2 0 0 1-3.997-5.99m-1.671.59-.043.215a5.6 5.6 0 0 0-.087.99l.002.175a5.6 5.6 0 0 0 4.4 5.297l.204.04-.062.074a4.2 4.2 0 1 1-4.414-6.79" clip-rule="evenodd"/></g><defs><clipPath id="a"><path fill="#fff" d="M0 0h14v14H0z"/></clipPath></defs></svg>
